Origami/32x32/apps/gargoyle-house.svg

<svg width="32" height="32" version="1" xmlns="http://www.w3.org/2000/svg">
 <path d="m 28,29.741417 0,-15.459016 -1.955219,-1.96957 C 25.565311,11.829842 22.597246,9.1962893 21.943489,9.0697283 L 16.181295,4.7840891 9.6780827,9.2681803 C 9.1225774,9.6512118 6.2929299,12.0118 5.829076,12.511283 L 4,14.480853 4,29.741417 C 4,30.438672 4.5352,31 5.2000001,31 L 26.800001,31 C 27.4648,31 28,30.438672 28,29.741417 Z" style="opacity:.2"/>
 <path d="m 28,28.741417 0,-15.459016 -1.955219,-1.96957 C 25.565311,10.829842 22.597246,8.1962893 21.943489,8.0697283 L 16.181295,3.7840891 9.6780827,8.2681803 C 9.1225774,8.6512118 6.2929299,11.0118 5.829076,11.511283 L 4,13.480853 4,28.741417 C 4,29.438672 4.5352,30 5.2000001,30 L 26.800001,30 C 27.4648,30 28,29.438672 28,28.741417 Z" style="fill:#cccccc"/>
 <rect x="4" y="13" width="24" height="1" style="opacity:.15"/>
 <rect x="5" y="4" width="4" height="7" rx=".713" ry=".765" style="fill:#4f4f4f"/>
 <rect x="6" y="17" width="7" height="11" rx="1.05" ry="1.031" style="fill:#956a42"/>
 <path d="m18.875 17c-1.025778 0-1.875 0.849222-1.875 1.874999v5.250001c0 1.025777 0.849222 1.875 1.875 1.875h5.25c1.025777 0 1.875-0.849223 1.875-1.875v-5.250001c0-1.025777-0.849223-1.874999-1.875-1.874999h-5.25z" style="fill:#956a42"/>
 <path d="m19.312501 20.000001c-0.183936 0-0.312501 0.128564-0.312501 0.3125v4.374999c0 0.183936 0.128565 0.3125 0.312501 0.3125h4.374998c0.183936 0 0.312501-0.128564 0.312501-0.3125v-4.374999c0-0.183936-0.128565-0.3125-0.312501-0.3125h-4.374998z" style="opacity:.2"/>
 <path d="m19.312501 19.000001c-0.183936 0-0.312501 0.128564-0.312501 0.3125v4.374999c0 0.183936 0.128565 0.3125 0.312501 0.3125h4.374998c0.183936 0 0.312501-0.128564 0.312501-0.3125v-4.374999c0-0.183936-0.128565-0.3125-0.312501-0.3125h-4.374998z" style="fill:#c2eeff"/>
 <circle cx="11" cy="23" r="1" style="opacity:.2"/>
 <circle cx="11" cy="22" r="1" style="fill:#ffffff"/>
 <path d="m6.2110269 11.166298c-0.4084355 0.339462-0.7441966 0.627273-0.8781128 0.764764l-1.9187378 1.969266v-0.681431h2.7968506z" style="opacity:.05"/>
 <path d="m9 8.7364135c-0.6938175 0.4765009-2.024628 1.4552225-3 2.2109875v2.052599h3z" style="opacity:.15"/>
 <path d="m12 6.8682047-2.6118165 1.6005418c-0.069928 0.04286-0.2615018 0.1806647-0.3881835 0.267667v4.2635865h3z" style="opacity:.05"/>
 <path d="m15 5.0286751-3 1.8395296v6.1317953h3z" style="opacity:.15"/>
 <path d="M 16.703613,3.9839531 15,5.0286751 15,13 l 3,0 0,-8.1584189 z" style="opacity:.05"/>
 <path d="m18 4.8415811v8.1584189h3v-6.175496z" style="opacity:.15"/>
 <path d="m21 6.824504v6.175496h3v-4.3223092c-0.353336-0.2187388-0.652157-0.3792878-0.812988-0.4069634z" style="opacity:.05"/>
 <path d="m24 8.6776908v4.3223092h3v-2.142732c-0.850714-0.675404-2.119875-1.6347206-3-2.1795772z" style="opacity:.15"/>
 <path d="m25.788981 11.076165v2.142732h2.79685v0.483412l-2.051206-1.970632c-0.11899-0.114285-0.401117-0.362115-0.745644-0.655512z" style="opacity:.05"/>
 <path d="M 16.000004,3.5 3.5,13.5" style="fill:none;stroke-linecap:round;stroke-linejoin:round;stroke-width:3;stroke:#5d5d5d"/>
 <path d="m16 3.5 12.5 10" style="fill:none;stroke-linecap:round;stroke-linejoin:round;stroke-width:3;stroke:#5d5d5d"/>
 <path d="m15.966797 1.9863281a1.50015 1.50015 0 0 0 -1.101563 0.5l-12.302734 9.8417969a1.5007322 1.5007322 0 0 0 -0.4765625 1.671875 1.5007322 1.5007322 0 0 1 0.4765625 -0.671875l12.302734-9.8417969a1.50015 1.50015 0 0 1 1.101563 -0.5 1.50015 1.50015 0 0 1 0.013672 0 1.50015 1.50015 0 0 1 0.011719 0 1.50015 1.50015 0 0 1 1.142578 0.5l12.302734 9.8417969a1.5007322 1.5007322 0 0 1 0.476562 0.671875 1.5007322 1.5007322 0 0 0 -0.476562 -1.671875l-12.302734-9.8417969a1.50015 1.50015 0 0 0 -1.142578 -0.5 1.50015 1.50015 0 0 0 -0.011719 0 1.50015 1.50015 0 0 0 -0.013672 0z" style="fill-rule:evenodd;fill:#ffffff;opacity:.1"/>
 <path d="M 5.7128906 4 C 5.3181189 4 5 4.3415858 5 4.765625 L 5 5.765625 C 5 5.3415858 5.3181189 5 5.7128906 5 L 8.2871094 5 C 8.6818811 5 9 5.3415858 9 5.765625 L 9 4.765625 C 9 4.3415858 8.6818811 4 8.2871094 4 L 5.7128906 4 z" style="fill:#ffffff;opacity:.1"/>
</svg>

<svg xmlns="http://www.w3.org/2000/svg" width="32" height="32" version="1">
 <path style="opacity:0.2" d="m 28,29.741417 0,-15.459016 -1.955219,-1.96957 C 25.565311,11.829842 22.597246,9.1962893 21.943489,9.0697283 L 16.181295,4.7840891 9.6780827,9.2681803 C 9.1225774,9.6512118 6.2929299,12.0118 5.829076,12.511283 L 4,14.480853 4,29.741417 C 4,30.438672 4.5352,31 5.2000001,31 L 26.800001,31 C 27.4648,31 28,30.438672 28,29.741417 Z"/>
 <path style="fill:#cccccc" d="m 28,28.741417 0,-15.459016 -1.955219,-1.96957 C 25.565311,10.829842 22.597246,8.1962893 21.943489,8.0697283 L 16.181295,3.7840891 9.6780827,8.2681803 C 9.1225774,8.6512118 6.2929299,11.0118 5.829076,11.511283 L 4,13.480853 4,28.741417 C 4,29.438672 4.5352,30 5.2000001,30 L 26.800001,30 C 27.4648,30 28,29.438672 28,28.741417 Z"/>
 <rect style="opacity:0.15" width="24" height="1" x="4" y="13"/>
 <rect style="fill:#4f4f4f" width="4" height="7" x="5" y="4" rx=".713" ry=".765"/>
 <rect style="fill:#956a42" width="7" height="11" x="6" y="17" rx="1.05" ry="1.031"/>
 <path style="fill:#956a42" d="M 18.875,17 C 17.849222,17 17,17.849222 17,18.874999 L 17,24.125 C 17,25.150777 17.849222,26 18.875,26 l 5.25,0 C 25.150777,26 26,25.150777 26,24.125 l 0,-5.250001 C 26,17.849222 25.150777,17 24.125,17 l -5.25,0 z"/>
 <path style="opacity:0.2" d="M 19.312501,20.000001 C 19.128565,20.000001 19,20.128565 19,20.312501 L 19,24.6875 C 19,24.871436 19.128565,25 19.312501,25 l 4.374998,0 C 23.871435,25 24,24.871436 24,24.6875 l 0,-4.374999 c 0,-0.183936 -0.128565,-0.3125 -0.312501,-0.3125 l -4.374998,0 z"/>
 <path style="fill:#c2eeff" d="M 19.312501,19.000001 C 19.128565,19.000001 19,19.128565 19,19.312501 L 19,23.6875 C 19,23.871436 19.128565,24 19.312501,24 l 4.374998,0 C 23.871435,24 24,23.871436 24,23.6875 l 0,-4.374999 c 0,-0.183936 -0.128565,-0.3125 -0.312501,-0.3125 l -4.374998,0 z"/>
 <circle style="opacity:0.2" cx="11" cy="23" r="1"/>
 <circle style="fill:#ffffff" cx="11" cy="22" r="1"/>
 <path style="opacity:0.05" d="M 6.2110269,11.166298 C 5.8025914,11.50576 5.4668303,11.793571 5.3329141,11.931062 l -1.9187378,1.969266 0,-0.681431 2.7968506,0 z"/>
 <path style="opacity:0.15" d="M 9,8.7364135 C 8.3061825,9.2129144 6.975372,10.191636 6,10.947401 L 6,13 9,13 Z"/>
 <path style="opacity:0.05" d="M 12,6.8682047 9.3881835,8.4687465 C 9.3182555,8.5116065 9.1266817,8.6494112 9,8.7364135 L 9,13 l 3,0 z"/>
 <path style="opacity:0.15" d="M 15,5.0286751 12,6.8682047 12,13 l 3,0 z"/>
 <path style="opacity:0.05" d="M 16.703613,3.9839531 15,5.0286751 15,13 l 3,0 0,-8.1584189 z"/>
 <path style="opacity:0.15" d="M 18,4.8415811 18,13 l 3,0 0,-6.175496 z"/>
 <path style="opacity:0.05" d="M 21,6.824504 21,13 24,13 24,8.6776908 C 23.646664,8.458952 23.347843,8.298403 23.187012,8.2707274 Z"/>
 <path style="opacity:0.15" d="M 24,8.6776908 24,13 l 3,0 0,-2.142732 C 26.149286,10.181864 24.880125,9.2225474 24,8.6776908 Z"/>
 <path style="opacity:0.05" d="m 25.788981,11.076165 0,2.142732 2.79685,0 0,0.483412 -2.051206,-1.970632 c -0.11899,-0.114285 -0.401117,-0.362115 -0.745644,-0.655512 z"/>
 <path style="fill:none;stroke:#5d5d5d;stroke-width:3;stroke-linecap:round;stroke-linejoin:round" d="M 16.000004,3.5 3.5,13.5"/>
 <path style="fill:none;stroke:#5d5d5d;stroke-width:3;stroke-linecap:round;stroke-linejoin:round" d="m 16,3.5 12.5,10"/>
 <path style="opacity:0.1;fill:#ffffff;fill-rule:evenodd" d="M 15.966797 1.9863281 A 1.50015 1.50015 0 0 0 14.865234 2.4863281 L 2.5625 12.328125 A 1.5007322 1.5007322 0 0 0 2.0859375 14 A 1.5007322 1.5007322 0 0 1 2.5625 13.328125 L 14.865234 3.4863281 A 1.50015 1.50015 0 0 1 15.966797 2.9863281 A 1.50015 1.50015 0 0 1 15.980469 2.9863281 A 1.50015 1.50015 0 0 1 15.992188 2.9863281 A 1.50015 1.50015 0 0 1 17.134766 3.4863281 L 29.4375 13.328125 A 1.5007322 1.5007322 0 0 1 29.914062 14 A 1.5007322 1.5007322 0 0 0 29.4375 12.328125 L 17.134766 2.4863281 A 1.50015 1.50015 0 0 0 15.992188 1.9863281 A 1.50015 1.50015 0 0 0 15.980469 1.9863281 A 1.50015 1.50015 0 0 0 15.966797 1.9863281 z"/>
 <path style="opacity:0.1;fill:#ffffff" d="M 5.7128906 4 C 5.3181189 4 5 4.3415858 5 4.765625 L 5 5.765625 C 5 5.3415858 5.3181189 5 5.7128906 5 L 8.2871094 5 C 8.6818811 5 9 5.3415858 9 5.765625 L 9 4.765625 C 9 4.3415858 8.6818811 4 8.2871094 4 L 5.7128906 4 z"/>
</svg>
